X:303
T:Auchindrain
C:Nigel Gatherer
Z:Nigel Gatherer <gatherer@argonet.co.uk>
M:4/4
L:1/8
K:Dm
A2|D2 FD ADFd|cgec fedf|eA (3AAA BAGE|FAGE FDE^C|
D2 FD ADFd|cgec fedf|eA (3AAA BAGE|F2 D2 D2:|
A2|dA (3AAA fde^c|dABG AFGE|FD (3DDD BAGA|EGcA fed^c|
dA (3AAA fde^c|dABG AFGE|FD (3DDD ^CEAG|F2 D2 D2:|
<end>
<start>
